icon/pk/uterus.svg

<svg viewBox="0 0 48 48" fill="none" xmlns="http://www.w3.org/2000/svg" height="1em" width="1em">
  <path d="M32.0002 18C31.0772 24 29.0002 29.5 24.5002 29.5C20.0002 29.5 18.5002 24.5 17.0002 18C15.5002 11.5 17.0002 6 24.5002 6C32.0002 6 32.9233 12 32.0002 18Z" fill="#2F88FF" stroke="black" stroke-width="4"/>
  <path d="M32.5 12.5C34.25 10.8682 36.0328 10.3296 38.8405 10.5043C43.052 10.7664 44 13.648 44 17.9564M44 17.9564C44 22.2648 42.3485 26.1825 39.0589 25.2961C35.7692 24.4097 36.2292 20.9096 37.7678 19.2686C39.3064 17.6276 41.9973 16.9589 44 17.9564Z" stroke="black" stroke-width="4" stroke-linecap="round"/>
  <path d="M16.5 12C14.7309 10.456 12.6403 10.3301 10.0869 10.5048C6.25675 10.7668 3.99999 13.6924 3.99999 18.0008M3.99999 18.0008C3.99999 22.3092 6.89652 26.1829 9.88829 25.2965C12.8801 24.4101 12.4618 20.9101 11.0625 19.2691C9.66321 17.6281 5.82131 17.0033 3.99999 18.0008Z" stroke="black" stroke-width="4" stroke-linecap="round"/>
  <path d="M20 27V43" stroke="black" stroke-width="4" stroke-linecap="round" stroke-linejoin="round"/>
  <path d="M29 27V43" stroke="black" stroke-width="4" stroke-linecap="round" stroke-linejoin="round"/>
</svg>

<svg width="48" height="48" fill="none" xmlns="http://www.w3.org/2000/svg"><path d="M32 18c-.923 6-3 11.5-7.5 11.5s-6-5-7.5-11.5 0-12 7.5-12 8.423 6 7.5 12Z" fill="#2F88FF" stroke="#000" stroke-width="4"/><path d="M32.5 12.5c1.75-1.632 3.533-2.17 6.34-1.996 4.212.262 5.16 3.144 5.16 7.452m0 0c0 4.309-1.651 8.227-4.941 7.34-3.29-.886-2.83-4.386-1.291-6.027 1.538-1.641 4.23-2.31 6.232-1.313ZM16.5 12c-1.77-1.544-3.86-1.67-6.413-1.495C6.257 10.767 4 13.692 4 18m0 0c0 4.308 2.897 8.182 5.888 7.296 2.992-.887 2.574-4.387 1.175-6.028-1.4-1.64-5.242-2.266-7.063-1.268Z" stroke="#000" stroke-width="4" stroke-linecap="round"/><path d="M20 27v16M29 27v16" stroke="#000" stroke-width="4" stroke-linecap="round" stroke-linejoin="round"/></svg>
